icons/modern/input-latin-lowercase.svg

<svg width="32" height="32" viewBox="0 0 32 32" fill="none" xmlns="http://www.w3.org/2000/svg">
<g filter="url(#filter0_ii_18590_2228)">
<rect x="1.93433" y="1.6875" width="27.875" height="27.875" rx="3.6" fill="url(#paint0_linear_18590_2228)"/>
<rect x="1.93433" y="1.6875" width="27.875" height="27.875" rx="3.6" fill="url(#paint1_radial_18590_2228)"/>
</g>
<g filter="url(#filter1_f_18590_2228)">
<path d="M28.1218 4.1875V27.0625" stroke="url(#paint2_linear_18590_2228)" stroke-width="1.5" stroke-linecap="round"/>
</g>
<g filter="url(#filter2_f_18590_2228)">
<path d="M5.39819 3.5H27.1794" stroke="url(#paint3_linear_18590_2228)" stroke-width="1.5" stroke-linecap="round"/>
</g>
<g filter="url(#filter3_f_18590_2228)">
<path d="M18.8683 4.02722C19.4206 4.02722 19.8683 4.47494 19.8683 5.02722V7.27223C19.8683 7.34569 19.945 7.3943 20.0127 7.36583C20.4296 7.19052 20.8876 7.09363 21.3683 7.09363C23.3013 7.09363 24.8683 8.66063 24.8683 10.5936C24.8683 12.5266 23.3013 14.0936 21.3683 14.0936C20.8022 14.0936 20.2676 13.9593 19.7945 13.7207C19.7477 13.6971 19.6907 13.7123 19.6586 13.7536C19.4757 13.9893 19.1897 14.1409 18.8683 14.1409C18.316 14.1409 17.8683 13.6932 17.8683 13.1409V5.02722C17.8683 4.47494 18.316 4.02722 18.8683 4.02722ZM21.3683 12.0936C22.1967 12.0936 22.8683 11.4221 22.8683 10.5936C22.8683 9.7652 22.1967 9.09363 21.3683 9.09363C20.5399 9.09363 19.8683 9.7652 19.8683 10.5936C19.8683 11.4221 20.5399 12.0936 21.3683 12.0936Z" fill="#579FFF"/>
<path d="M13.8542 7.94861C13.8542 7.39632 13.4065 6.94861 12.8542 6.94861C12.5063 6.94861 12.1998 7.12633 12.0207 7.39596C11.9904 7.44159 11.931 7.46054 11.8816 7.43682C11.4236 7.21685 10.9103 7.09363 10.3683 7.09363C8.43529 7.09363 6.86829 8.66063 6.86829 10.5936C6.86829 12.5266 8.43529 14.0936 10.3683 14.0936C10.9304 14.0936 11.4616 13.9611 11.9323 13.7256C11.9788 13.7023 12.0353 13.7173 12.0674 13.7582C12.2505 13.9912 12.5349 14.1409 12.8542 14.1409C13.4065 14.1409 13.8542 13.6932 13.8542 13.1409V10.9092C13.8635 10.8053 13.8683 10.7 13.8683 10.5936C13.8683 10.4872 13.8635 10.382 13.8542 10.278V7.94861ZM11.8542 10.7997C11.7538 11.5306 11.1268 12.0936 10.3683 12.0936C9.53986 12.0936 8.86829 11.4221 8.86829 10.5936C8.86829 9.7652 9.53986 9.09363 10.3683 9.09363C11.1268 9.09363 11.7538 9.65664 11.8542 10.3876V10.7997Z" fill="#579FFF"/>
<path d="M10.8816 20.0465C10.0532 20.0465 9.38159 20.7181 9.38159 21.5465C9.38159 22.3749 10.0532 23.0465 10.8816 23.0465C11.2134 23.0465 11.5173 22.94 11.765 22.759C12.211 22.4331 12.8366 22.5305 13.1624 22.9764C13.4883 23.4223 13.3909 24.0479 12.945 24.3738C12.3663 24.7966 11.6517 25.0465 10.8816 25.0465C8.9486 25.0465 7.38159 23.4795 7.38159 21.5465C7.38159 19.6135 8.9486 18.0465 10.8816 18.0465C11.6517 18.0465 12.3663 18.2964 12.945 18.7192C13.3909 19.0451 13.4883 19.6707 13.1624 20.1166C12.8366 20.5626 12.211 20.6599 11.765 20.3341C11.5173 20.1531 11.2134 20.0465 10.8816 20.0465Z" fill="#579FFF"/>
<path d="M24.4581 16.0465C24.4581 15.4942 24.0104 15.0465 23.4581 15.0465C22.9058 15.0465 22.4581 15.4942 22.4581 16.0465V18.2251C22.4581 18.2986 22.3814 18.3472 22.3137 18.3187C21.8968 18.1434 21.4388 18.0465 20.9581 18.0465C19.0251 18.0465 17.4581 19.6135 17.4581 21.5465C17.4581 23.4795 19.0251 25.0465 20.9581 25.0465C21.5104 25.0465 22.0328 24.9186 22.4973 24.6908C22.546 24.6669 22.6049 24.6848 22.6358 24.7294C22.8163 24.9897 23.1173 25.1602 23.4581 25.1602C24.0104 25.1602 24.4581 24.7125 24.4581 24.1602V16.0465ZM22.4581 21.5465C22.4581 22.3749 21.7866 23.0465 20.9581 23.0465C20.1297 23.0465 19.4581 22.3749 19.4581 21.5465C19.4581 20.7181 20.1297 20.0465 20.9581 20.0465C21.7866 20.0465 22.4581 20.7181 22.4581 21.5465Z" fill="#579FFF"/>
</g>
<g filter="url(#filter4_ii_18590_2228)">
<path d="M18.8683 4.02722C19.4206 4.02722 19.8683 4.47494 19.8683 5.02722V7.27223C19.8683 7.34569 19.945 7.3943 20.0127 7.36583C20.4296 7.19052 20.8876 7.09363 21.3683 7.09363C23.3013 7.09363 24.8683 8.66063 24.8683 10.5936C24.8683 12.5266 23.3013 14.0936 21.3683 14.0936C20.8022 14.0936 20.2676 13.9593 19.7945 13.7207C19.7477 13.6971 19.6907 13.7123 19.6586 13.7536C19.4757 13.9893 19.1897 14.1409 18.8683 14.1409C18.316 14.1409 17.8683 13.6932 17.8683 13.1409V5.02722C17.8683 4.47494 18.316 4.02722 18.8683 4.02722ZM21.3683 12.0936C22.1967 12.0936 22.8683 11.4221 22.8683 10.5936C22.8683 9.7652 22.1967 9.09363 21.3683 9.09363C20.5399 9.09363 19.8683 9.7652 19.8683 10.5936C19.8683 11.4221 20.5399 12.0936 21.3683 12.0936Z" fill="#FCF2FF"/>
<path d="M13.8542 7.94861C13.8542 7.39632 13.4065 6.94861 12.8542 6.94861C12.5063 6.94861 12.1998 7.12633 12.0207 7.39596C11.9904 7.44159 11.931 7.46054 11.8816 7.43682C11.4236 7.21685 10.9103 7.09363 10.3683 7.09363C8.43529 7.09363 6.86829 8.66063 6.86829 10.5936C6.86829 12.5266 8.43529 14.0936 10.3683 14.0936C10.9304 14.0936 11.4616 13.9611 11.9323 13.7256C11.9788 13.7023 12.0353 13.7173 12.0674 13.7582C12.2505 13.9912 12.5349 14.1409 12.8542 14.1409C13.4065 14.1409 13.8542 13.6932 13.8542 13.1409V10.9092C13.8635 10.8053 13.8683 10.7 13.8683 10.5936C13.8683 10.4872 13.8635 10.382 13.8542 10.278V7.94861ZM11.8542 10.7997C11.7538 11.5306 11.1268 12.0936 10.3683 12.0936C9.53986 12.0936 8.86829 11.4221 8.86829 10.5936C8.86829 9.7652 9.53986 9.09363 10.3683 9.09363C11.1268 9.09363 11.7538 9.65664 11.8542 10.3876V10.7997Z" fill="#FCF2FF"/>
<path d="M10.8816 20.0465C10.0532 20.0465 9.38159 20.7181 9.38159 21.5465C9.38159 22.3749 10.0532 23.0465 10.8816 23.0465C11.2134 23.0465 11.5173 22.94 11.765 22.759C12.211 22.4331 12.8366 22.5305 13.1624 22.9764C13.4883 23.4223 13.3909 24.0479 12.945 24.3738C12.3663 24.7966 11.6517 25.0465 10.8816 25.0465C8.9486 25.0465 7.38159 23.4795 7.38159 21.5465C7.38159 19.6135 8.9486 18.0465 10.8816 18.0465C11.6517 18.0465 12.3663 18.2964 12.945 18.7192C13.3909 19.0451 13.4883 19.6707 13.1624 20.1166C12.8366 20.5626 12.211 20.6599 11.765 20.3341C11.5173 20.1531 11.2134 20.0465 10.8816 20.0465Z" fill="#FCF2FF"/>
<path d="M24.4581 16.0465C24.4581 15.4942 24.0104 15.0465 23.4581 15.0465C22.9058 15.0465 22.4581 15.4942 22.4581 16.0465V18.2251C22.4581 18.2986 22.3814 18.3472 22.3137 18.3187C21.8968 18.1434 21.4388 18.0465 20.9581 18.0465C19.0251 18.0465 17.4581 19.6135 17.4581 21.5465C17.4581 23.4795 19.0251 25.0465 20.9581 25.0465C21.5104 25.0465 22.0328 24.9186 22.4973 24.6908C22.546 24.6669 22.6049 24.6848 22.6358 24.7294C22.8163 24.9897 23.1173 25.1602 23.4581 25.1602C24.0104 25.1602 24.4581 24.7125 24.4581 24.1602V16.0465ZM22.4581 21.5465C22.4581 22.3749 21.7866 23.0465 20.9581 23.0465C20.1297 23.0465 19.4581 22.3749 19.4581 21.5465C19.4581 20.7181 20.1297 20.0465 20.9581 20.0465C21.7866 20.0465 22.4581 20.7181 22.4581 21.5465Z" fill="#FCF2FF"/>
</g>
<defs>
<filter id="filter0_ii_18590_2228" x="1.93433" y="0.6875" width="28.875" height="28.875" filterUnits="userSpaceOnUse" color-interpolation-filters="sRGB">
<feFlood flood-opacity="0" result="BackgroundImageFix"/>
<feBlend mode="normal" in="SourceGraphic" in2="BackgroundImageFix" result="shape"/>
<feColorMatrix in="SourceAlpha" type="matrix" values="0 0 0 0 0 0 0 0 0 0 0 0 0 0 0 0 0 0 127 0" result="hardAlpha"/>
<feOffset dx="1" dy="-1"/>
<feGaussianBlur stdDeviation="1.5"/>
<feComposite in2="hardAlpha" operator="arithmetic" k2="-1" k3="1"/>
<feColorMatrix type="matrix" values="0 0 0 0 0.188235 0 0 0 0 0.470588 0 0 0 0 0.843137 0 0 0 1 0"/>
<feBlend mode="normal" in2="shape" result="effect1_innerShadow_18590_2228"/>
<feColorMatrix in="SourceAlpha" type="matrix" values="0 0 0 0 0 0 0 0 0 0 0 0 0 0 0 0 0 0 127 0" result="hardAlpha"/>
<feOffset dy="-1"/>
<feGaussianBlur stdDeviation="1.5"/>
<feComposite in2="hardAlpha" operator="arithmetic" k2="-1" k3="1"/>
<feColorMatrix type="matrix" values="0 0 0 0 0.27451 0 0 0 0 0.34902 0 0 0 0 0.8 0 0 0 1 0"/>
<feBlend mode="normal" in2="effect1_innerShadow_18590_2228" result="effect2_innerShadow_18590_2228"/>
</filter>
<filter id="filter1_f_18590_2228" x="25.3718" y="1.4375" width="5.5" height="28.375" filterUnits="userSpaceOnUse" color-interpolation-filters="sRGB">
<feFlood flood-opacity="0" result="BackgroundImageFix"/>
<feBlend mode="normal" in="SourceGraphic" in2="BackgroundImageFix" result="shape"/>
<feGaussianBlur stdDeviation="1" result="effect1_foregroundBlur_18590_2228"/>
</filter>
<filter id="filter2_f_18590_2228" x="2.64819" y="0.75" width="27.2812" height="5.5" filterUnits="userSpaceOnUse" color-interpolation-filters="sRGB">
<feFlood flood-opacity="0" result="BackgroundImageFix"/>
<feBlend mode="normal" in="SourceGraphic" in2="BackgroundImageFix" result="shape"/>
<feGaussianBlur stdDeviation="1" result="effect1_foregroundBlur_18590_2228"/>
</filter>
<filter id="filter3_f_18590_2228" x="5.86829" y="3.02722" width="20" height="23.1329" filterUnits="userSpaceOnUse" color-interpolation-filters="sRGB">
<feFlood flood-opacity="0" result="BackgroundImageFix"/>
<feBlend mode="normal" in="SourceGraphic" in2="BackgroundImageFix" result="shape"/>
<feGaussianBlur stdDeviation="0.5" result="effect1_foregroundBlur_18590_2228"/>
</filter>
<filter id="filter4_ii_18590_2228" x="5.86829" y="3.62722" width="19.4" height="22.5329" filterUnits="userSpaceOnUse" color-interpolation-filters="sRGB">
<feFlood flood-opacity="0" result="BackgroundImageFix"/>
<feBlend mode="normal" in="SourceGraphic" in2="BackgroundImageFix" result="shape"/>
<feColorMatrix in="SourceAlpha" type="matrix" values="0 0 0 0 0 0 0 0 0 0 0 0 0 0 0 0 0 0 127 0" result="hardAlpha"/>
<feOffset dx="-1" dy="1"/>
<feGaussianBlur stdDeviation="1"/>
<feComposite in2="hardAlpha" operator="arithmetic" k2="-1" k3="1"/>
<feColorMatrix type="matrix" values="0 0 0 0 0.866667 0 0 0 0 0.819608 0 0 0 0 0.941176 0 0 0 1 0"/>
<feBlend mode="normal" in2="shape" result="effect1_innerShadow_18590_2228"/>
<feColorMatrix in="SourceAlpha" type="matrix" values="0 0 0 0 0 0 0 0 0 0 0 0 0 0 0 0 0 0 127 0" result="hardAlpha"/>
<feOffset dx="0.4" dy="-0.4"/>
<feGaussianBlur stdDeviation="0.5"/>
<feComposite in2="hardAlpha" operator="arithmetic" k2="-1" k3="1"/>
<feColorMatrix type="matrix" values="0 0 0 0 1 0 0 0 0 0.988235 0 0 0 0 1 0 0 0 1 0"/>
<feBlend mode="normal" in2="effect1_innerShadow_18590_2228" result="effect2_innerShadow_18590_2228"/>
</filter>
<linearGradient id="paint0_linear_18590_2228" x1="15.8718" y1="5.26201" x2="15.8718" y2="38.5147" gradientUnits="userSpaceOnUse">
<stop stop-color="#5CB7FF"/>
<stop offset="1" stop-color="#4878DD"/>
</linearGradient>
<radialGradient id="paint1_radial_18590_2228" cx="0" cy="0" r="1" gradientUnits="userSpaceOnUse" gradientTransform="translate(27.5906 3.78125) rotate(136.771) scale(2.14444 2.50466)">
<stop stop-color="#7BD7FF"/>
<stop offset="1" stop-color="#7BD7FF" stop-opacity="0"/>
</radialGradient>
<linearGradient id="paint2_linear_18590_2228" x1="28.6218" y1="4.1875" x2="28.6218" y2="27.0625" gradientUnits="userSpaceOnUse">
<stop stop-color="#7FD9FF"/>
<stop offset="1" stop-color="#639DF4"/>
</linearGradient>
<linearGradient id="paint3_linear_18590_2228" x1="28.3357" y1="3.75002" x2="2.80444" y2="3.75002" gradientUnits="userSpaceOnUse">
<stop stop-color="#7DD8FF"/>
<stop offset="1" stop-color="#5DB6FF"/>
</linearGradient>
</defs>
</svg>

<svg width="32" height="32" fill="none" xmlns="http://www.w3.org/2000/svg"><g filter="url(#a)"><rect x="1.934" y="1.688" width="27.875" height="27.875" rx="3.6" fill="url(#b)"/><rect x="1.934" y="1.688" width="27.875" height="27.875" rx="3.6" fill="url(#c)"/></g><g filter="url(#d)"><path d="M28.122 4.188v22.875" stroke="url(#e)" stroke-width="1.5" stroke-linecap="round"/></g><g filter="url(#f)"><path d="M5.398 3.5H27.18" stroke="url(#g)" stroke-width="1.5" stroke-linecap="round"/></g><g filter="url(#h)" fill="#579FFF"><path d="M18.868 4.027a1 1 0 0 1 1 1v2.245c0 .074.077.122.145.094a3.5 3.5 0 1 1-.218 6.355.11.11 0 0 0-.136.033 1 1 0 0 1-1.79-.613V5.027a1 1 0 0 1 1-1Zm2.5 8.067a1.5 1.5 0 1 0 0-3 1.5 1.5 0 0 0 0 3ZM13.854 7.949a1 1 0 0 0-1.833-.553.11.11 0 0 1-.14.04 3.5 3.5 0 1 0 .05 6.289.11.11 0 0 1 .136.033.998.998 0 0 0 1.787-.617v-2.232a3.54 3.54 0 0 0 0-.631v-2.33Zm-2 2.85a1.5 1.5 0 1 1 0-.411v.412ZM10.882 20.047a1.5 1.5 0 1 0 .883 2.712 1 1 0 1 1 1.18 1.615 3.5 3.5 0 1 1 0-5.655 1 1 0 0 1-1.18 1.615 1.489 1.489 0 0 0-.883-.287ZM24.458 16.047a1 1 0 1 0-2 0v2.178a.104.104 0 0 1-.144.094 3.5 3.5 0 1 0 .184 6.372.11.11 0 0 1 .138.038.999.999 0 0 0 1.822-.569v-8.113Zm-2 5.5a1.5 1.5 0 1 1-3 0 1.5 1.5 0 0 1 3 0Z"/></g><g filter="url(#i)" fill="#FCF2FF"><path d="M18.868 4.027a1 1 0 0 1 1 1v2.245c0 .074.077.122.145.094a3.5 3.5 0 1 1-.218 6.355.11.11 0 0 0-.136.033 1 1 0 0 1-1.79-.613V5.027a1 1 0 0 1 1-1Zm2.5 8.067a1.5 1.5 0 1 0 0-3 1.5 1.5 0 0 0 0 3ZM13.854 7.949a1 1 0 0 0-1.833-.553.11.11 0 0 1-.14.04 3.5 3.5 0 1 0 .05 6.289.11.11 0 0 1 .136.033.998.998 0 0 0 1.787-.617v-2.232a3.54 3.54 0 0 0 0-.631v-2.33Zm-2 2.85a1.5 1.5 0 1 1 0-.411v.412ZM10.882 20.047a1.5 1.5 0 1 0 .883 2.712 1 1 0 1 1 1.18 1.615 3.5 3.5 0 1 1 0-5.655 1 1 0 0 1-1.18 1.615 1.489 1.489 0 0 0-.883-.287ZM24.458 16.047a1 1 0 1 0-2 0v2.178a.104.104 0 0 1-.144.094 3.5 3.5 0 1 0 .184 6.372.11.11 0 0 1 .138.038.999.999 0 0 0 1.822-.569v-8.113Zm-2 5.5a1.5 1.5 0 1 1-3 0 1.5 1.5 0 0 1 3 0Z"/></g><defs><filter id="a" x="1.934" y=".688" width="28.875" height="28.875" filterUnits="userSpaceOnUse" color-interpolation-filters="sRGB"><feFlood flood-opacity="0" result="BackgroundImageFix"/><feBlend in="SourceGraphic" in2="BackgroundImageFix" result="shape"/><feColorMatrix in="SourceAlpha" values="0 0 0 0 0 0 0 0 0 0 0 0 0 0 0 0 0 0 127 0" result="hardAlpha"/><feOffset dx="1" dy="-1"/><feGaussianBlur stdDeviation="1.5"/><feComposite in2="hardAlpha" operator="arithmetic" k2="-1" k3="1"/><feColorMatrix values="0 0 0 0 0.188235 0 0 0 0 0.470588 0 0 0 0 0.843137 0 0 0 1 0"/><feBlend in2="shape" result="effect1_innerShadow_18590_2228"/><feColorMatrix in="SourceAlpha" values="0 0 0 0 0 0 0 0 0 0 0 0 0 0 0 0 0 0 127 0" result="hardAlpha"/><feOffset dy="-1"/><feGaussianBlur stdDeviation="1.5"/><feComposite in2="hardAlpha" operator="arithmetic" k2="-1" k3="1"/><feColorMatrix values="0 0 0 0 0.27451 0 0 0 0 0.34902 0 0 0 0 0.8 0 0 0 1 0"/><feBlend in2="effect1_innerShadow_18590_2228" result="effect2_innerShadow_18590_2228"/></filter><filter id="d" x="25.372" y="1.438" width="5.5" height="28.375" filterUnits="userSpaceOnUse" color-interpolation-filters="sRGB"><feFlood flood-opacity="0" result="BackgroundImageFix"/><feBlend in="SourceGraphic" in2="BackgroundImageFix" result="shape"/><feGaussianBlur stdDeviation="1" result="effect1_foregroundBlur_18590_2228"/></filter><filter id="f" x="2.648" y=".75" width="27.281" height="5.5" filterUnits="userSpaceOnUse" color-interpolation-filters="sRGB"><feFlood flood-opacity="0" result="BackgroundImageFix"/><feBlend in="SourceGraphic" in2="BackgroundImageFix" result="shape"/><feGaussianBlur stdDeviation="1" result="effect1_foregroundBlur_18590_2228"/></filter><filter id="h" x="5.868" y="3.027" width="20" height="23.133" filterUnits="userSpaceOnUse" color-interpolation-filters="sRGB"><feFlood flood-opacity="0" result="BackgroundImageFix"/><feBlend in="SourceGraphic" in2="BackgroundImageFix" result="shape"/><feGaussianBlur stdDeviation=".5" result="effect1_foregroundBlur_18590_2228"/></filter><filter id="i" x="5.868" y="3.627" width="19.4" height="22.533" filterUnits="userSpaceOnUse" color-interpolation-filters="sRGB"><feFlood flood-opacity="0" result="BackgroundImageFix"/><feBlend in="SourceGraphic" in2="BackgroundImageFix" result="shape"/><feColorMatrix in="SourceAlpha" values="0 0 0 0 0 0 0 0 0 0 0 0 0 0 0 0 0 0 127 0" result="hardAlpha"/><feOffset dx="-1" dy="1"/><feGaussianBlur stdDeviation="1"/><feComposite in2="hardAlpha" operator="arithmetic" k2="-1" k3="1"/><feColorMatrix values="0 0 0 0 0.866667 0 0 0 0 0.819608 0 0 0 0 0.941176 0 0 0 1 0"/><feBlend in2="shape" result="effect1_innerShadow_18590_2228"/><feColorMatrix in="SourceAlpha" values="0 0 0 0 0 0 0 0 0 0 0 0 0 0 0 0 0 0 127 0" result="hardAlpha"/><feOffset dx=".4" dy="-.4"/><feGaussianBlur stdDeviation=".5"/><feComposite in2="hardAlpha" operator="arithmetic" k2="-1" k3="1"/><feColorMatrix values="0 0 0 0 1 0 0 0 0 0.988235 0 0 0 0 1 0 0 0 1 0"/><feBlend in2="effect1_innerShadow_18590_2228" result="effect2_innerShadow_18590_2228"/></filter><linearGradient id="b" x1="15.872" y1="5.262" x2="15.872" y2="38.515" gradientUnits="userSpaceOnUse"><stop stop-color="#5CB7FF"/><stop offset="1" stop-color="#4878DD"/></linearGradient><linearGradient id="e" x1="28.622" y1="4.188" x2="28.622" y2="27.063" gradientUnits="userSpaceOnUse"><stop stop-color="#7FD9FF"/><stop offset="1" stop-color="#639DF4"/></linearGradient><linearGradient id="g" x1="28.336" y1="3.75" x2="2.804" y2="3.75" gradientUnits="userSpaceOnUse"><stop stop-color="#7DD8FF"/><stop offset="1" stop-color="#5DB6FF"/></linearGradient><radialGradient id="c" cx="0" cy="0" r="1" gradientUnits="userSpaceOnUse" gradientTransform="matrix(-1.56249 1.46876 -1.71548 -1.82495 27.59 3.781)"><stop stop-color="#7BD7FF"/><stop offset="1" stop-color="#7BD7FF" stop-opacity="0"/></radialGradient></defs></svg>
